X: 1095
T: Child of My Heart
R:double jig
N:"collected by Ennis"
B:O'Neill's 1095
Z:Transcribed by henrik.norbeck@mailbox.swipnet.se
M:6/8
L:1/8
K:C
c|e2d c2A|GEE c2d|e2d c2A|GEA GED|
e2d c2A|GEE c2d|edc dcA|GEA GED:|
ABA AGE|c3 DED|ABA AGE|GED DED|
ABA AGE|c3 c2d|edc dcA|GEA GED:|


